!!!!SEGMENT: pl-wtm--r-2545--004_hertz-michal--firdusi-no-4-melodram.krn
!!!cenid: 18xx:3106
!!!COM: Hertz, Michał
!!!COM-rismID: pe41023359
!!!CDT: 1844/09/28-~1918
!!!CNT: Polish
!!!OPR: Firdusi
!!!OTL: No. 4 – Melodram
!!!OMV: 004
!!!PDT:
!!!AGN:
!!!SMS-siglum: PL-Wtm
!!!SMS-shelfmark: R 2545
!!!SMS-shelfwork: 001-004 M
!!!SMS-variant:
!!!SMS-altvar:
!!!NIFC-rismSourceID: 1001081950
!!!NIFC-rismChildID: 1001081950
!!!NIFC-islandoraID:
!!!URL-pdf-islandora:
!!!URL-scan:
!!!IIIF:
!!!ONB-nifc:
!!!OMD: Allegretto [quarter-dot]=60
!!!AIN: 1 alto 1 bass 1 cello 5 empty
!!!key:
**kern	**dynam	**kern	**dynam	**kern	**dynam	**kern	**dynam	**kern	**dynam	**kern	**dynam	**kern	**kern	**dynam
*part8	*part8	*part7	*part7	*part6	*part6	*part5	*part5	*part4	*part4	*part3	*part3	*part2	*part1	*part1
*staff8	*	*staff7	*	*staff6	*	*staff5	*	*staff4	*	*staff3	*	*staff2	*staff1	*
*Ibass	*	*Icello	*	*Ialto	*	*Iempty	*	*Iempty	*	*Iempty	*	*Iempty	*Iempty	*
*I"Basso	*	*I"Cello	*	*I"Alto	*	*I"Viol 2°	*	*I"Viol 1°	*	*I"Cor in F	*	*I"Cl in B	*I"Fl	*
*I'cb	*	*I'vlc	*	*I'vla	*	*I'vl 2	*	*I'vl 1	*	*I'cor in F	*	*I'cl in B	*I'fl	*
*clefF4	*	*clefF4	*	*clefC3	*	*clefG2	*	*clefG2	*	*clefG2	*	*clefG2	*clefG2	*
*ITrd0c0	*	*	*	*	*	*	*	*	*	*ITrd4c7	*	*ITrd1c2	*	*
*k[f#]	*	*k[f#]	*	*k[f#]	*	*k[f#]	*	*k[f#]	*	*k[f#]	*	*k[f#]	*k[f#]	*
*G:	*	*G:	*	*G:	*	*G:	*	*G:	*	*G:	*	*G:	*G:	*
*M6/8	*	*M6/8	*	*M6/8	*	*M6/8	*	*M6/8	*	*M6/8	*	*M6/8	*M6/8	*
*MM90	*	*MM90	*	*MM90	*	*MM90	*	*MM90	*	*MM90	*	*MM90	*MM90	*
=1	=1	=1	=1	=1	=1	=1	=1	=1	=1	=1	=1	=1	=1	=1
!!LO:TX:a:t=P:problem:all\right:global
!	!	!LO:TX:a:Bi:t=sost	!	!LO:TX:a:Bi:t=sost	!	!LO:TX:a:Bi:t=sost	!	!LO:TX:a:Bi:t=sost.	!	!	!	!	!	!
!	!	!	!	!	!	!	!	!LO:TX:a:Bi:t=Allegretto [quarter-dot]=60	!	!	!	!	!	!
!	!	!	!LO:DY:b:rj	!	!LO:DY:b:rj	!	!LO:DY:b:rj	!	!LO:DY:b:rj	!	!	!	!	!
2.r	.	(>8GG\L	pp	4g\	pp	4d/	pp	4b\	pp	2.r	.	2.r	2.r	.
.	.	8G\J)	.	.	.	.	.	.	.	.	.	.	.	.
.	.	8r	.	8g\	.	(<8d/	.	(>8b\	.	.	.	.	.	.
.	.	(8EE\L	.	4b\	.	4g/)	.	4ee\)	.	.	.	.	.	.
.	.	8E\J)	.	.	.	.	.	.	.	.	.	.	.	.
.	.	8r	.	8b\	.	8g/	.	(>8ee\	.	.	.	.	.	.
=2	=2	=2	=2	=2	=2	=2	=2	=2	=2	=2	=2	=2	=2	=2
2.r	.	(>8GG\L	.	8b\	.	8g'</	.	8dd'>\)	.	2.r	.	2.r	2.r	.
.	.	8G\J)	.	8r	.	8r	.	8r	.	.	.	.	.	.
.	.	8r	.	[>8g\	.	[<8d/	.	[>8b\	.	.	.	.	.	.
.	.	(>8DD\L	.	8g\]	.	8d/]	.	8b\]	.	.	.	.	.	.
.	.	8D\J)	.	8r	.	8r	.	8r	.	.	.	.	.	.
.	.	8r	.	(>8g\	.	8d/	.	(>8b\	.	.	.	.	.	.
=3	=3	=3	=3	=3	=3	=3	=3	=3	=3	=3	=3	=3	=3	=3
!	!	!	!	!	!	!LO:TX:t=P:problem=w źródle niewyraźny zapis	!	!	!	!	!	!	!	!
2.r	.	(>8D\L	<	8f#\)	.	8d/	.	8a\)	.	8r	.	2.r	2.r	.
.	.	8d\J)	[	8r	.	8r	.	8r	.	8r	.	.	.	.
!	!	!	!	!	!	!	!	!	!	!	!LO:DY:b:rj	!	!	!
.	.	8r	.	8f#\	.	(<8c#X/	.	[>8a\	.	[>8f#X\	p	.	.	.
!	!	!	!	!	!	!	!LO:HP:b	!	!LO:HP:b	!	!	!	!	!
.	.	(>8DD\L	.	8f#\L	<	8cn/L	<	8a\L]	<	(>4.f#\]	.	.	.	.
.	.	8D\J)	.	8f#\	.	8B/	.	(>8b\	.	.	.	.	.	.
.	.	8ryy	.	8f#\J	.	8A/J)	.	8cc\J)	.	.	.	.	.	.
=4	=4	=4	=4	=4	=4	=4	=4	=4	=4	=4	=4	=4	=4	=4
4r	.	(>8GG\L	.	[>4.g\	[[	(<4A#X/	.	(>4cc#X\	.	[>4.g\)	.	2.r	2.r	.
.	.	8G\J)	.	.	.	.	.	.	.	.	.	.	.	.
8r	.	8r	.	.	.	[<8B/)	[	[>8dd\)	[	.	.	.	.	.
!	!LO:DY:a	!	!	!	!	!	!	!	!	!	!	!	!	!
(>8GG\L	pp	4r	.	4g\]	.	4B/]	.	4dd\]	.	4g\]	.	.	.	.
8G\J)	.	.	.	.	.	.	.	.	.	.	.	.	.	.
8r	.	8r	.	8r	.	8r	.	8r	.	8r	.	.	.	.
=5	=5	=5	=5	=5	=5	=5	=5	=5	=5	=5	=5	=5	=5	=5
!	!	!	!LO:DY:b	!	!LO:DY:b	!	!LO:DY:b:rj	!	!LO:DY:b	!	!	!	!	!
2.r	.	(>8GG\L	pp	4g\	pp	4d/	pp	4b\	pp	2.r	.	2.r	2.r	.
.	.	8G\J)	.	.	.	.	.	.	.	.	.	.	.	.
.	.	8r	.	8g\	.	(<8d/	.	(>8b\	.	.	.	.	.	.
.	.	(>8EE\L	.	4b\	.	4g/)	.	4ee\)	.	.	.	.	.	.
.	.	8E\J)	.	.	.	.	.	.	.	.	.	.	.	.
.	.	8r	.	8b\	.	8g/	.	(>8ee\	.	.	.	.	.	.
=6	=6	=6	=6	=6	=6	=6	=6	=6	=6	=6	=6	=6	=6	=6
2.r	.	(>8GG\L	.	8b\	.	8g/	.	8dd\)	.	2.r	.	2.r	2.r	.
.	.	8G\J)	.	8r	.	8r	.	8r	.	.	.	.	.	.
.	.	8r	.	[>8g\	.	[<8d/	.	[>8b\	.	.	.	.	.	.
.	.	(>8DD\L	.	8g\]	.	8d/]	.	8b\]	.	.	.	.	.	.
.	.	8D\J)	.	8r	.	8r	.	8r	.	.	.	.	.	.
.	.	8r	.	8f#\	.	(8d/	.	(8b\	.	.	.	.	.	.
=7	=7	=7	=7	=7	=7	=7	=7	=7	=7	=7	=7	=7	=7	=7
!	!	!	!	!	!	!	!	!	!	!LO:TX:t=P:problem=w źródle brak znaków przykluczowych	!	!	!	!
2.r	.	(>8FF#\L	.	8f#\	.	8c#X/)	.	8a#X\)	.	8r	.	2.r	2.r	.
.	.	8F#\J)	.	8r	.	8r	.	8r	.	8r	.	.	.	.
!	!	!	!	!	!	!	!	!	!	!	!LO:DY:b	!	!	!
.	.	8r	.	8f#\	.	[<8c#/	.	(>8a#\	<	[>8f#X\	p	.	.	.
!	!	!	!LO:DY:b:Bi:t=%s.:rj	!	!	!	!	!	!	!	!	!	!	!
.	.	(>8FF#\L	mf	8f#\L	<	8c#/L]	<	8a#\L)	.	4.f#\_>	.	.	.	.
.	.	8F#\J)	.	8f#\	.	8B/	.	(>8b\	.	.	.	.	.	.
.	.	8r	.	8f#\J	.	8A#X/J	.	8cc#X\J	.	.	.	.	.	.
=8	=8	=8	=8	=8	=8	=8	=8	=8	=8	=8	=8	=8	=8	=8
!	!	!	!LO:DY:b	!	!	!	!	!	!	!	!	!	!	!
4r	.	(>8BB\L	pp	8f#\	[	8B/	[	8dd\)	[	4.f#X\_>	.	2.r	2.r	.
.	.	8B\J)	.	8r	.	8r	.	8r	.	.	.	.	.	.
8r	.	8r	.	[>8f#\	.	[<8d/	.	[>8b\	.	.	.	.	.	.
(>8D\L	.	4r	.	8f#\]	.	8d/]	.	8b\]	.	4f#\]	.	.	.	.
8d\J)	.	.	.	8r	.	8r	.	8r	.	.	.	.	.	.
!	!	!	!	!	!LO:DY:b	!	!LO:DY:b	!	!LO:DY:b	!	!	!	!	!
8r	.	8r	.	8f#\	p	8d/	p	8b\	p	8r	.	.	.	.
!!LO:LB:g=original
=9	=9	=9	=9	=9	=9	=9	=9	=9	=9	=9	=9	=9	=9	=9
2.r	.	(>8AA\L	.	4f#\	.	4e/	.	4cc\	.	8r	.	2.r	2.r	.
.	.	8A\J)	.	.	.	.	.	.	.	8r	.	.	.	.
!	!	!	!	!	!	!	!	!	!	!	!LO:DY:b	!	!	!
.	.	8r	.	[>8f#\	.	[<8e/	.	[>8cc\	.	[>8f#X\	p	.	.	.
.	.	(>8DD\L	.	8f#\L]	.	8e/L]	.	8cc\L]	.	(>4.f#\]	.	.	.	.
.	.	8D\J)	.	8f#'>\	.	(<8d/	.	(>8b\	.	.	.	.	.	.
.	.	8r	.	(>8f#\J	.	8c/J	.	8a\J	.	.	.	.	.	.
=10	=10	=10	=10	=10	=10	=10	=10	=10	=10	=10	=10	=10	=10	=10
4r	.	(>8GG\L	.	8g\)	.	8d/)	.	8b\)	.	8g\)	.	4r	4r	.
.	.	8G\J)	.	8r	.	8r	.	8r	.	8r	.	.	.	.
8r	.	8r	.	[>8d\	.	[<8B/	.	[<8g/	.	8r	.	8r	8r	.
(>8D\L	.	4r	.	8d\]	.	8B/]	.	8g/]	.	4r	.	8r	8r	.
!	!	!	!	!	!	!	!	!	!	!	!	!	!	!LO:DY:b:rj
8d\J)	.	.	.	8r	.	8r	.	8r	.	.	.	8ggL 8dd'>\	8bb'>\L	pp
8r	.	8r	.	8r	.	8r	.	8r	.	8r	.	8ddJ 8b'>\	8gg'>\J	.
=11	=11	=11	=11	=11	=11	=11	=11	=11	=11	=11	=11	=11	=11	=11
2.r	.	(>8AA\L	.	4f#\	.	4e/	.	4cc\	pp	8r	.	2.r	2.r	.
.	.	8A\J)	.	.	.	.	.	.	.	8r	.	.	.	.
.	.	8r	.	[>8f#\	.	[<8e/	.	[>8cc\	.	[>8f#X\	.	.	.	.
.	.	(>8DD\L	.	8f#\L]	.	8e/L]	.	8cc\L]	.	(>4.f#\]	.	.	.	.
.	.	8D\J)	.	8f#\	.	(<8d/	.	(>8b\	.	.	.	.	.	.
.	.	8r	.	(>8f#\J	.	8c/J	.	8a\J	.	.	.	.	.	.
=12	=12	=12	=12	=12	=12	=12	=12	=12	=12	=12	=12	=12	=12	=12
!	!	!	!	!	!	!	!	!LO:TX:a:Bi:t=12	!	!	!	!	!	!
4r	.	(>8GG\L	.	8g\)	.	8B/)	.	8ee\)	.	8g\)	.	4r	4r	.
.	.	8G\J)	.	8r	.	8r	.	8r	.	8r	.	.	.	.
8r	.	8r	.	[8g\	.	[<8B/	.	[>8dd\	.	8r	.	8r	8r	.
(>8D\L	.	4r	.	8g\]	.	8B/]	.	8dd\]	.	4r	.	8r	8r	.
8d\J)	.	.	.	8r	.	8r	.	8r	.	.	.	8ggL 8b'>\	8eee'>\L	.
8r	.	8r	.	8r	.	8r	.	8r	.	8r	.	8ggJ 8b'>\	8ddd'>\J	.
=13	=13	=13	=13	=13	=13	=13	=13	=13	=13	=13	=13	=13	=13	=13
!	!	!	!	!	!	!	!	!LO:TX:a:Bi:t=13	!	!	!	!	!	!
2.r	.	(>8GG\L	.	4g\	.	4d/	.	4b\	.	2.r	.	2.r	2.r	.
.	.	8G\J)	.	.	.	.	.	.	.	.	.	.	.	.
.	.	8r	.	8g\	.	(<8d/	.	(>8b\	.	.	.	.	.	.
.	.	(>8EE\L	.	4b\	.	4g/)	.	4ee\)	.	.	.	.	.	.
.	.	8E\J)	.	.	.	.	.	.	.	.	.	.	.	.
.	.	8r	.	8b\	.	8g/	.	(>8ee\	.	.	.	.	.	.
=14	=14	=14	=14	=14	=14	=14	=14	=14	=14	=14	=14	=14	=14	=14
2.r	.	(>8GG\L	.	8b\	.	8g/	.	8dd\)	.	2.r	.	2.r	2.r	.
.	.	8G\J)	.	8r	.	8r	.	8r	.	.	.	.	.	.
.	.	8r	.	[>8dd\	<	[>8b\	<	[>8gg\	<	.	.	.	.	.
.	.	(>8DD\L	.	4dd\]	.	4b\]	.	4gg\]	.	.	.	.	.	.
.	.	8D\J)	.	.	.	.	.	.	.	.	.	.	.	.
.	.	8r	.	8dd'>\	.	8b'>\	[[	8gg'>\	[[	.	.	.	.	.
=15	=15	=15	=15	=15	=15	=15	=15	=15	=15	=15	=15	=15	=15	=15
!	!	!	!	!LO:TX:b:Bi:t=poco rit	!	!LO:TX:b:Bi:t=poco rit	!	!LO:TX:b:Bi:t=poco rit	!	!	!	!	!	!
2.r	.	(>8EE\L	.	8ee\L	[	8b'>\L	.	8gg'>\L	.	2.r	.	2.r	2.r	.
.	.	8E\J)	.	8b\	>	8g'>\	>	8ee'>\	>	.	.	.	.	.
.	.	8r	.	8g\J	.	8e'>\J	.	8b'>\J	.	.	.	.	.	.
.	.	.	.	.	.	.	.	(<8qdd/	.	.	.	.	.	.
.	.	(>8AA\L	.	4f#\	.	4e/	.	4cc'>\)	.	.	.	.	.	.
.	.	8A\	.	.	.	.	.	.	.	.	.	.	.	.
.	.	8D\J)	.	8f#\	]	8c/	]	(>8b\	]	.	.	.	.	.
=16	=16	=16	=16	=16	=16	=16	=16	=16	=16	=16	=16	=16	=16	=16
4r	.	(>8GG\L	.	4.f#\	.	[<4.B/	.	[>4.g/)	.	2.r	.	2.r	2.r	.
.	.	8G\J)	.	.	.	.	.	.	.	.	.	.	.	.
8r	.	8r	.	.	.	.	.	.	.	.	.	.	.	.
!LO:TX:a:Bi:t=pizo.	!	!	!	!	!	!	!	!	!	!	!	!	!	!
8GG/	.	4r	.	8f#\	.	8B/]	.	8g/]	.	.	.	.	.	.
!LO:TX:b:Bi:t=W razie gdyby ta muzyka nie starczyła do deklamacyi można po 12 takcie wsunąć 4 początkowe takty, a potem od taktu 13 wykonać ucztę	!	!	!	!	!	!	!	!	!	!	!	!	!	!
4r	.	.	.	4r	.	8r	.	8r	.	.	.	.	.	.
.	.	8r	.	.	.	8r	.	8r	.	.	.	.	.	.
==	==	==	==	==	==	==	==	==	==	==	==	==	==	==
*-	*-	*-	*-	*-	*-	*-	*-	*-	*-	*-	*-	*-	*-	*-
!!!system-decoration: [(s1,s2)][(s3)]{(s4,s5)}[(s6)]{(s7,s8)}
!!!RDF**kern: > = above
!!!RDF**kern: < = below
!!!RDF**dynam: > = "dim", fontstyle= "bold-italic"
!!!RDF**dynam: < = "cresc", fontstyle= "bold-italic"
!!!RDF**kern: | = vertical stroke
!!!RDF**kern: N = linked
!!!RDF**kern: i = editorial accidental
!!!ENC: Anastazja Marusiak
!!!END: 2021-11-02
!!!EED: Wojciech Jakubiak-Danek
!!!EEV: 2021-11-04
!!!YEC: Copyright 2022 Narodowy Instytut Fryderyka Chopina (https://polishscores.org)
!!!YEM: License CC-BY-4.0 (https://creativecommons.org/licenses/by/4.0)
